assets/emojis/SlightlyFrowningFace.svg

<svg width="126" height="126" viewBox="0 0 126 126" fill="none" xmlns="http://www.w3.org/2000/svg">
<circle cx="62.8965" cy="63.1904" r="62.3496" fill="#F9B42F"/>
<path opacity="0.3" fill-rule="evenodd" clip-rule="evenodd" d="M113.835 99.3585C102.514 110.952 86.71 118.149 69.2255 118.149C34.7908 118.149 6.87591 90.2337 6.87591 55.7989C6.87591 42.4052 11.0991 29.9979 18.2866 19.8359C7.31072 31.0748 0.546875 46.4452 0.546875 63.3955C0.546875 97.8302 28.4617 125.745 62.8965 125.745C83.9375 125.745 102.544 115.322 113.835 99.3585Z" fill="#BC8417"/>
<path d="M37.6373 62.9938C40.2922 62.9938 42.4445 60.8415 42.4445 58.1866C42.4445 55.5317 40.2922 53.3794 37.6373 53.3794C34.9823 53.3794 32.8301 55.5317 32.8301 58.1866C32.8301 60.8415 34.9823 62.9938 37.6373 62.9938Z" fill="#2C2A46"/>
<path d="M88.2769 62.9933C90.9319 62.9933 93.0841 60.841 93.0841 58.1861C93.0841 55.5312 90.9319 53.3789 88.2769 53.3789C85.622 53.3789 83.4697 55.5312 83.4697 58.1861C83.4697 60.841 85.622 62.9933 88.2769 62.9933Z" fill="#2C2A46"/>
<path d="M63.3247 76.3951C70.6691 76.3951 76.9517 78.9435 78.9515 82.7485C79.1568 83.1441 79.2052 83.6027 79.0871 84.0324C78.969 84.4622 78.6931 84.8316 78.3144 85.0668C78.109 85.1783 77.8835 85.2479 77.651 85.2717C77.4185 85.2956 77.1836 85.2731 76.9598 85.2056C76.736 85.1382 76.5278 85.027 76.3472 84.8787C76.1666 84.7303 76.0172 84.5477 75.9076 84.3412C74.7749 82.1644 69.9966 79.8638 63.4132 79.8638C56.8297 79.8638 51.7505 82.2529 50.8125 84.5713C50.6342 85.0078 50.2897 85.3556 49.855 85.5381C49.4202 85.7207 48.9307 85.723 48.4942 85.5447C48.0577 85.3663 47.7099 85.0218 47.5273 84.5871C47.3448 84.1523 47.3425 83.6628 47.5208 83.2263C49.1667 79.2267 55.7325 76.3951 63.3247 76.3951Z" fill="#2C2A46"/>
</svg>

<svg xmlns="http://www.w3.org/2000/svg" width="126" height="126" fill="none" viewBox="0 0 126 126"><circle cx="62.897" cy="63.19" r="62.35" fill="#f9b42f"/><path fill="#bc8417" fill-rule="evenodd" d="M113.835 99.359c-11.321 11.593-27.125 18.79-44.61 18.79-34.434 0-62.35-27.915-62.35-62.35 0-13.394 4.224-25.801 11.412-35.963C7.31 31.075.547 46.446.547 63.396c0 34.434 27.915 62.349 62.35 62.349 21.04 0 39.647-10.423 50.938-26.386" clip-rule="evenodd" opacity=".3"/><path fill="#2c2a46" d="M37.637 62.994a4.807 4.807 0 1 0 0-9.615 4.807 4.807 0 0 0 0 9.615m50.64-.001a4.807 4.807 0 1 0 0-9.614 4.807 4.807 0 0 0 0 9.614M63.325 76.395c7.344 0 13.627 2.549 15.626 6.354a1.77 1.77 0 0 1-.637 2.318 1.77 1.77 0 0 1-2.406-.726c-1.133-2.177-5.911-4.477-12.495-4.477s-11.662 2.389-12.6 4.707a1.778 1.778 0 1 1-3.292-1.345c1.646-4 8.212-6.83 15.804-6.83"/></svg>
